docs/img/bgProblems320.svg

<svg width="320" height="598" fill="none" xmlns="http://www.w3.org/2000/svg"><path d="M16 487.75L82 451l66 36.75v73.206L82 598l-66-37.044V487.75zm204-338L286 113l66 36.75v73.206L286 260l-66-37.044V149.75zm68-113L354 0l66 36.75v73.206L354 147l-66-37.044V36.75zm-408 0L-54 0l66 36.75v73.206L-54 147l-66-37.044V36.75z" fill="#F9F9F9"/></svg>

<svg width="320" height="598" viewBox="0 0 320 598" fill="none" xmlns="http://www.w3.org/2000/svg">
<path d="M16 487.75L82 451L148 487.75V560.956L82 598L16 560.956V487.75Z" fill="#F9F9F9"/>
<path d="M220 149.75L286 113L352 149.75V222.956L286 260L220 222.956V149.75Z" fill="#F9F9F9"/>
<path d="M288 36.75L354 0L420 36.75V109.956L354 147L288 109.956V36.75Z" fill="#F9F9F9"/>
<path d="M-120 36.75L-54 0L12 36.75V109.956L-54 147L-120 109.956V36.75Z" fill="#F9F9F9"/>
</svg>
